server/website/public/icons/base/billing.svg

<svg width="48" height="48" viewBox="0 0 48 48" fill="none" xmlns="http://www.w3.org/2000/svg">
<path d="M0.00186522 13.8647H47.9991V11.8187C47.9991 7.28821 45.705 5 41.1363 5H6.8646C2.29691 5 0.000932719 7.28822 0.000932719 11.8196L0.00186522 13.8647ZM0.00186522 35.2029C0.00186522 39.7343 2.29597 42 6.8646 42H41.1363C45.704 42 48 39.7343 48 35.2029V18.8588H0L0.00186522 35.2029ZM7.30198 29.8353V25.7657C7.30198 24.5343 8.15434 23.6539 9.44407 23.6539H14.7989C16.0886 23.6539 16.941 24.5343 16.941 25.7657V29.8353C16.941 31.0892 16.0886 31.9471 14.7989 31.9471H9.44314C8.15341 31.9471 7.30198 31.0892 7.30198 29.8353Z" fill="black"/>
</svg>

<svg width="48" height="48" fill="none" xmlns="http://www.w3.org/2000/svg"><path d="M.002 13.865h47.997v-2.046C48 7.289 45.705 5 41.136 5H6.865C2.297 5 0 7.288 0 11.82v2.045zm0 21.338C.002 39.734 2.296 42 6.865 42h34.271C45.704 42 48 39.734 48 35.203V18.859H0l.002 16.344zm7.3-5.368v-4.07c0-1.23.852-2.111 2.142-2.111H14.8c1.29 0 2.142.88 2.142 2.112v4.07c0 1.253-.852 2.111-2.142 2.111H9.443c-1.29 0-2.141-.858-2.141-2.112z" fill="#000"/></svg>
